src/components/Icon/assets/channel-up-filled.svg

<svg width="24" height="24" viewBox="0 0 24 24" fill="none" xmlns="http://www.w3.org/2000/svg">
<path fill-rule="evenodd" clip-rule="evenodd" d="M15.2135 10.8077C14.3685 10.8077 14.0145 10.1967 14.0145 8.7027C14.0145 7.2077 14.3685 6.5977 15.2135 6.5977C16.0585 6.5977 16.4115 7.2077 16.4115 8.7027C16.4115 10.1967 16.0585 10.8077 15.2135 10.8077V10.8077ZM8.7865 10.8077C7.9415 10.8077 7.5885 10.1967 7.5885 8.7027C7.5885 7.2077 7.9415 6.5977 8.7865 6.5977C9.6315 6.5977 9.9845 7.2077 9.9845 8.7027C9.9845 10.1967 9.6315 10.8077 8.7865 10.8077V10.8077ZM20.7235 18.1877C20.5575 17.6917 20.5765 17.1417 20.8225 16.6807C21.8605 14.7327 22.2815 12.4067 21.7875 9.95271C20.9825 5.95171 17.6925 2.78671 13.6645 2.13571C6.8375 1.03071 1.0235 6.84571 2.1295 13.6727C2.7825 17.7007 5.9465 20.9897 9.9465 21.7937C12.4025 22.2877 14.7295 21.8667 16.6785 20.8267C17.1375 20.5817 17.6805 20.5617 18.1745 20.7267C18.7115 20.9057 19.4285 21.1447 20.0975 21.3677C20.8795 21.6287 21.6225 20.8847 21.3615 20.1027L20.7235 18.1877Z" fill="#65676A"/>
</svg>

<svg xmlns="http://www.w3.org/2000/svg" width="24" height="24" viewBox="0 0 24 24">
    <path fill="#65676A" fill-rule="evenodd" d="M15.213 10.808c-.845 0-1.198-.611-1.198-2.105 0-1.495.353-2.105 1.198-2.105s1.199.61 1.199 2.105c0 1.494-.354 2.105-1.198 2.105zm-6.426 0c-.846 0-1.199-.611-1.199-2.105 0-1.495.353-2.105 1.199-2.105.845 0 1.197.61 1.197 2.105 0 1.494-.352 2.105-1.197 2.105zm11.937 7.38c-.166-.496-.148-1.046.099-1.507 1.037-1.948 1.459-4.274.965-6.728-.805-4.001-4.096-7.166-8.123-7.817C6.838 1.03 1.024 6.846 2.13 13.673c.653 4.028 3.817 7.317 7.817 8.12 2.456.495 4.783.074 6.732-.966.459-.245 1.002-.265 1.495-.1l1.924.64c.782.262 1.524-.482 1.264-1.264l-.638-1.915z"/>
</svg>
